communes/96.svg

<?xml version="1.0" encoding="UTF-8"?>
<!DOCTYPE svg  PUBLIC '-//W3C//DTD SVG 1.1//EN'  'http://www.w3.org/Graphics/SVG/1.1/DTD/svg11.dtd' [
	<!ENTITY ns_flows "http://ns.adobe.com/Flows/1.0/">
	<!ENTITY ns_svg "http://www.w3.org/2000/svg">
	<!ENTITY ns_xlink "http://www.w3.org/1999/xlink">
]>
<svg width="359" height="453" enable-background="new -2.954 -4.537 359 453" version="1.1" viewBox="-2.954 -4.537 359 453" xml:space="preserve" xmlns="http://www.w3.org/2000/svg">

<path d="m3.346 3.328v263.99c0 95.68 77.271 173.24 172.59 173.24 95.319 0 172.59-77.564 172.59-173.24v-263.99h-345.18z" fill="#fff"/>
<path d="m296.2 391.51v-388.02h-48.322v421.39c0 1e-3 28.954-13.762 48.322-33.366z" fill="#1C3192" stroke="#000" stroke-width="1.1506"/>
<path d="m55.1 391.46v-387.76h48.901v421.27c0-1e-3 -36.819-20.281-48.901-33.512z" fill="#1C3192" stroke="#000" stroke-width="1.1506"/>
<path d="m199.88 438.64v-434.93h-48.326v434.93s20.328 4.22 48.326 0z" fill="#1C3192" stroke="#000" stroke-width="1.1506"/>
<rect x="3.131" y="161.34" width="345.37" height="86.295" fill="#F7110C" stroke="#000" stroke-width="1.1509"/>
<path d="m3.346 3.328v263.99c0 95.68 77.271 173.24 172.59 173.24 95.319 0 172.59-77.564 172.59-173.24v-263.99h-345.18z" fill="none" stroke="#000" stroke-width="1.7259"/>
<rect width="351.51" height="442.98" fill="none"/>
</svg>

<?xml version="1.0" encoding="utf-8"?>
<!-- Generator: Adobe Illustrator 12.0.0, SVG Export Plug-In  -->
<!DOCTYPE svg PUBLIC "-//W3C//DTD SVG 1.1//EN" "http://www.w3.org/Graphics/SVG/1.1/DTD/svg11.dtd" [
	<!ENTITY ns_flows "http://ns.adobe.com/Flows/1.0/">
	<!ENTITY ns_svg "http://www.w3.org/2000/svg">
	<!ENTITY ns_xlink "http://www.w3.org/1999/xlink">
]>
<svg  version="1.1" xmlns="&ns_svg;" xmlns:xlink="&ns_xlink;" xmlns:a="http://ns.adobe.com/AdobeSVGViewerExtensions/3.0/"
	 width="359" height="453" viewBox="-2.954 -4.537 359 453" enable-background="new -2.954 -4.537 359 453" xml:space="preserve">
<defs>
</defs>
<path id="path1899_1_" fill="#FFFFFF" d="M3.346,3.328v263.988c0,95.68,77.271,173.244,172.591,173.244
	c95.319,0,172.591-77.564,172.591-173.244V3.328H3.346z"/>
<path fill="#1C3192" stroke="#000000" stroke-width="1.1506" d="M296.2,391.507V3.484h-48.322v421.389
	C247.878,424.874,276.832,411.111,296.2,391.507z"/>
<path fill="#1C3192" stroke="#000000" stroke-width="1.1506" d="M55.1,391.463V3.708h48.901v419.205v2.062
	C104.001,424.974,67.182,404.694,55.1,391.463z"/>
<path fill="#1C3192" stroke="#000000" stroke-width="1.1506" d="M199.885,438.638V3.708h-48.326v434.93
	C151.559,438.638,171.887,442.858,199.885,438.638z"/>
<rect x="3.131" y="161.341" fill="#F7110C" stroke="#000000" stroke-width="1.1509" width="345.374" height="86.295"/>
<path id="path3239_1_" fill="none" stroke="#000000" stroke-width="1.7259" d="M3.346,3.328v263.988
	c0,95.68,77.271,173.244,172.591,173.244c95.319,0,172.591-77.564,172.591-173.244V3.328H3.346z"/>
<rect fill="none" width="351.511" height="442.985"/>
</svg>
